img/potential.svg

<svg width="48" height="48" viewBox="0 0 48 48" fill="none" xmlns="http://www.w3.org/2000/svg">
<g clip-path="url(#clip0)">
<path d="M46.967 25.8202C50.602 12.7002 44.314 0.0751953 33.295 0.0751953C27.198 0.0751953 18.5 1.0752 14.898 9.7382C11.427 18.0842 0.5 10.5742 0 27.8202C0 42.0732 20.876 55.7362 26.668 42.8472C32.46 29.9582 43.333 38.9412 46.968 25.8202H46.967Z" fill="#E8F3FE"/>
<path fill-rule="evenodd" clip-rule="evenodd" d="M33 24C33 26.3869 32.0518 28.6761 30.364 30.364C28.6761 32.0518 26.3869 33 24 33C21.6131 33 19.3239 32.0518 17.636 30.364C15.9482 28.6761 15 26.3869 15 24C15 21.6131 15.9482 19.3239 17.636 17.636C19.3239 15.9482 21.6131 15 24 15C26.3869 15 28.6761 15.9482 30.364 17.636C32.0518 19.3239 33 21.6131 33 24ZM35 24C35 30.075 30.075 35 24 35C17.925 35 13 30.075 13 24C13 17.925 17.925 13 24 13C30.075 13 35 17.925 35 24ZM22.5 29L18 24.5L19.5 23L22.5 26L28.5 20L30 21.5L22.5 29Z" fill="#2C70C1"/>
</g>
<defs>
<clipPath id="clip0">
<rect width="48" height="48" fill="white"/>
</clipPath>
</defs>
</svg>

<svg width="48" height="48" fill="none" xmlns="http://www.w3.org/2000/svg"><g clip-path="url(#clip0)"><path d="M46.967 25.82C50.602 12.7 44.314.075 33.295.075c-6.097 0-14.795 1-18.397 9.663C11.427 18.084.5 10.574 0 27.82c0 14.253 20.876 27.916 26.668 15.027 5.792-12.889 16.665-3.906 20.3-17.027h-.001z" fill="#E8F3FE"/><path fill-rule="evenodd" clip-rule="evenodd" d="M33 24a9 9 0 11-18 0 9 9 0 0118 0zm2 0c0 6.075-4.925 11-11 11s-11-4.925-11-11 4.925-11 11-11 11 4.925 11 11zm-12.5 5L18 24.5l1.5-1.5 3 3 6-6 1.5 1.5-7.5 7.5z" fill="#2C70C1"/></g><defs><clipPath id="clip0"><path fill="#fff" d="M0 0h48v48H0z"/></clipPath></defs></svg>
